X:727
T:Mrs. Norman Lockhart
R:Reel
C:William Clarke
B:The Athole Collection
M:C|
L:1/8
K:F
C|FCAF cAfc|dBGF EF/G/ EC|FCAF cAfc|dBGE F3:|
c|fc ~c2 fcaf|gcbg fedc|ac ~c2 dBgf|efge f3c|fc ~c2 Afca|
dbag fedc|f/g/a fc d/e/f dB|A/B/c BG ~F3||

